!!!!SEGMENT:pl-wtm--r-730-7-m--003_moniuszko-stanislaw-walc.krn
!!!id: 18xx:1686
!!!COM: Moniuszko, Stanisław
!!!OTL: Walc
!!!PDT:
!!!SMS-siglum: PL-Wtm
!!!SMS-shelfmark: R 730/7/M
!!!SMS-variant:
!!!SMS-altvar:
!!!NIFC-rismID: 1001099777
!!!system-decoration: [(s1,s2)]
**kern	**kern	**dynam
*part1	*part1	*part1
*staff2	*staff1	*
*	*I"Piano	*
*clefF4	*clefG2	*
*k[f#c#g#d#a#e#]	*k[f#c#g#d#a#e#]	*
*M3/4	*M3/4	*
*>[A,B,B]	*>[A,B,B]	*
=1	=1	=1
*>A	*>A	*
*	*2\right	*
*	*8va	*
4FF#/	4aa#/	.
4A# 4F# 4C#\	4aa#/	.
4A# 4F# 4C#\	4aa#/	.
=2	=2	=2
4C# 4CC#/	8bb/L	.
.	8aa#/	.
4A# 4F# 4C#\	8gg##X/	.
.	8aa#/J	.
4A# 4F# 4C#\	4ff#/	.
=3	=3	=3
4GG#/	4ccc#\	.
4B 4E# 4C#\	4ccc#\	.
4B 4E# 4C#\	4ccc#\	.
=4	=4	=4
4C# 4CC#/	8ddd#\L	.
.	8ccc#\	.
4B 4G# 4E#\	8bb#X\	.
.	8ccc#\J	.
4B 4G# 4E#\	4gg#/	.
*	*X8va	*
=5	=5	=5
!	!LO:TX:a:Bi:t=loco.	!
4FF#/	4aa#\	.
4c# 4F#\	4aa#\	.
4c##X 4F#\	4aa#\	.
=6	=6	=6
4BB/	4.gg#\	.
4d# 4B 4F#\	.	.
.	8ff#\L	.
4d# 4B 4F#\	8ee#\	.
.	8dd#\J	.
=7	=7	=7
4C#/	4.dd#\	.
4B 4G#\	.	.
.	8cc#\L	.
4B 4G#\	8e#\	.
.	8g#\J	.
!!LO:LB:g=original
=8	=8	=8
4FF#/	(>2dd#\	.
4A# 4F#\	.	.
4A# 4F#\	4cc#\)	.
=9	=9	=9
*	*8va	*
4FF#/	4aa#/	.
4A# 4F# 4C#\	4aa#/	.
4A# 4F# 4C#\	4aa#/	.
=10	=10	=10
4F#\	8bb/L	.
.	8aa#/	.
4c# 4A#\	8gg##X/	.
.	8aa#/J	.
4c# 4A#\	4ff#/	.
=11	=11	=11
4En\	4ccc#\	.
4A# 4G#\	4ccc#\	.
4A# 4G#\	4ccc#\	.
=12	=12	=12
*	*^	*
4D#\	8ccc#\L	4ryy	.
.	8bb\	.	.
4c# 4F##X\	8aa#\	4ryy	.
.	8gg#\J	.	.
4c# 4F##\	[<4eee#/	4ff##X\	.
=13	=13	=13	=13
4GG#/	4.eee#/]	4gg#\	.
4B 4G#\	.	4ree	.
.	8ddd#/L	.	.
4B 4G#\	8bb/	4rcc	.
.	8gg#/J	.	.
*	*v	*v	*
=14	=14	=14
4C#/	4.gg#/	.
4A# 4F#\	.	.
.	8ff#/L	.
4A# 4F#\	8ee#/	.
.	8ff#/J	.
=15	=15	=15
4CC#/	4.aa#/	.
4B 4E#X\	.	.
.	8gg#\L	.
4B 4E#\	8ddd#\	.
.	8ccc#\J	.
=16	=16	=16
4A# 4F#\	4ff#/	.
*	*X8va	*
4FF#/	4r	.
!	!LO:TX:a:t=P:w źródle znak repetycji powtórzony przed łamaniem systemu:problem	!
4r	4r	.
!!LO:LB:g=original
=17!|:	=17!|:	=17!|:
*>B	*>B	*
!	!	!LO:DY:b:rj
!	!LO:SIC:n=1:v:s=4aan	!
4AAn/	4aa# 4een 4cc# 4an\	f
!	!LO:SIC:n=1:v:s=2aan	!
4c# 4Gn 4En\	2aa# 2a^<\	.
4c# 4G 4E\	.	.
=18	=18	=18
*rep	*	*
4AAn/	8aa#L 8a#\	>
.	8bb 8b\	.
4c# 4Gn 4En\	8ccc# 8cc#\	.
.	8dddn 8ddn\	.
4c# 4G 4E\	8eeen 8een\	.
.	8eee#XJ 8ee#X\	.
*Xrep	*	*
=19	=19	=19
4Dn\	2fff# 2ff#\	.
4d# 4F#\	.	.
4d# 4F#\	4aan 4ff#\	]]
=20	=20	=20
4AA#/	4dddn 4ff#\	.
4d# 4A# 4F#\	4r	.
4d# 4A# 4F#\	4r	.
=21	=21	=21
!	!	!LO:DY:b:Bi:t=%s.:rj
4GG#X/	4gg# 4dd#X 4b#X 4g#X\	f
4B#X 4F# 4D#X\	2gg# 2g#^<\	.
4B# 4F# 4D#\	.	.
=22	=22	=22
*rep	*	*
4GG#X/	8gg#L 8g#\	>
.	8aa# 8a#\	.
4B#X 4F#X 4D#X\	8bb 8b\	.
.	8ccc# 8cc#\	.
4B# 4F# 4D#\	8ddd# 8dd#\	.
.	8ddd##XJ 8dd##X\	.
*Xrep	*	*
=23	=23	=23
4C#/	2eee# 2ee#\	.
4c# 4E#\	.	.
4c# 4E#\	4gg# 4ee#\	.
=24	=24	=24
4C#/	4ccc# 4cc#\	.
4r	4bb#X\	.
4r	4bbn\	]
!!LO:LB:g=original
=25	=25	=25
!	!	!LO:DY:b:Bi:t=%s.:rj
4F#\	4aa#\	pp
4c# 4A#\	4aa#\	.
4c# 4A#\	4aa#\	.
=26	=26	=26
4En\	8bb\L	.
.	8aa#\	.
4c# 4A#\	8gg##X\	.
.	8aa#\J	.
4c# 4A#\	4ff#\	.
=27	=27	=27
4D#\	4ddd#\	.
4c# 4A#\	4.ddd#\	.
(<4FF##X/	.	.
.	8ccc#\	.
=28	=28	=28
*	*8va	*
4GG#/)	8ccc#\L	.
.	8bb\	.
4B 4G#\	8ggg#\	.
.	8fff#\	.
4B 4G#\	8eee#\	.
.	8ddd#\J	.
=29	=29	=29
4C#/	4.ddd#\	.
4A# 4F#\	.	.
.	8ccc#\L	.
4A# 4F#\	8aa#\	.
.	8ff#\J	.
*	*X8va	*
=30	=30	=30
!	!LO:TX:a:Bi:t=loco.	!
4CC#/	4.ee#X\	.
4B 4G# 4C#\	.	.
.	8dd#\L	.
4B 4G# 4C#\	8b\	.
.	8g#\J	.
=31	=31	=31
4A# 4F#\	(<8f#/L	.
.	16g#/L	.
.	16f#/JJ)	.
4C#/	8e#/L	.
.	8f#/	.
4AA#/	8a#/	.
.	8cc#/J	.
=32	=32	=32
4FF#/	4ff#\	.
4FFF#/	4r	.
!	!LO:TX:b:Bi:t=V&colon;S&colon;	!
4r	4r	.
==:|!	==:|!	==:|!
*-	*-	*-
!!title: @{OTL};
!!!RDF**kern: > = above
!!!RDF**kern: < = below
!!!RDF**dynam: < = "cres", fontstyle= "bold-italic"
!!!RDF**dynam: > = "dim", fontstyle= "bold-italic"
!!!RDF**kern: N = linked
!!!RDF**kern: i = editorial accidental
!!!ENC: Marcin Jachim
!!!END: 2021-04-02
!!!EED: Wojciech Jakubiak-Danek
!!!EST: 2021-04-22
!!!URL-scan: http://repozytorium.nifc.pl/skany/pl-wtm-nut--r730m-1-43
!!!ONB-nifc: Skan 0014. No. 758
